X: 77
T: Lord Dalhousie
R:Reel
S:MacDonald - Skye Collection
N:pg.48
M:C|
L:1/8
K:D
A|d2 (fd) A/A/A fd|egfe dBBc|d2 (fd) egfe|dBAF D/D/D D:|
B|AD[FA]A B2 cd|ABFA BEEB|ADFA BcdA|GdAF D/D/D (DB)|
ADFA B2 (Bd)|ABFA BEEB|AFGA Bcde|fdef d/d/d d||


